!!!OTL: Ein neues Liedlein, die evangelische Lehre betreffend. (1524.) / "Ic hoorde die spiefse craken seer."
!!!ARE: Europa, Mitteleuropa, Deutschland
!!!SCT: A0387B
!!!TXO: @@NLD
!!!YEM: Copyright 1995, estate of Helmut Schaffrath.
**kern
!! Mixed meters:  4/2; 3/1
*M4/2yy
*met(c|)
*clefC3
*k[]
*C:mix
=1
!LO:TX:a:t=mixolyd.
!LO:TX:a:t=P:2r in the source:problem
2ryy
{2c
2c
2c
=1
*M3/1
1d
2c
1f
2e
=2
1f
2r}
{2d
2e
2f
=3
1g
2g
2d
1e
=4
*M4/2
1d
2r}
{2e
=5
2f
2e
2f
2d
=6
*M3/1
1c
1B
2r}
{2c
=7
1d
2d
1e
2c
=8-
*M4/2
(2f
2e)
!LO:TX:a:t=P:2d in the source:problem
!LO:N:vis=2
1d
=9
1c
2r}
{2g
=10
2g
2g
2g
2g
=11
1f
1d}
=12
*M3/1
{(2.e
4d)
2c
(1f
2e
=13
1d)
0cll}
==
!!!GTL: Einige historisch-politische Lieder
!!!AGN: Romanze, Ballade, Lied, religioeses Lied
!! Souterliedekens 1540 ad Ps.10.
!!!ONB: ESAC (Essen Associative Code) Database: ALTDEU
!!!AMT: irregular
!!!AIN: vox
!!!EED: Helmut Schaffrath
!!!EEV: 1.0
!!!RDF**kern: l = terminal long
!!!AMD: Mixolydian
!!!URL-scan: https://rosdok.uni-rostock.de/mcrviewer/recordIdentifier/rosdok_ppn738218359/iview2/phys_0550.iview2?x=-948.0634874302073&y=547.0992373484187&scale=0.3669911794666851&rotation=0&layout=singlePageLayout&logicalDiv=log_0014
!!!ENC: Anna Maria Matuszewska
!!!EEV: 2024/14/03
*-
